icons/svg/npm.svg

<!-- Generated by IcoMoon.io -->
<svg version="1.1" xmlns="http://www.w3.org/2000/svg" width="48" height="48" viewBox="0 0 48 48">
<title>npm</title>
<path d="M24 25.333h-2.667v-5.333h2.667zM48 14.667v16h-24v2.667h-10.667v-2.667h-13.333v-16zM13.333 17.333h-10.667v10.667h5.333v-8h2.667v8h2.667zM26.667 17.333h-10.667v13.333h5.333v-2.667h5.333zM45.333 17.333h-16v10.667h5.333v-8h2.667v8h2.667v-8h2.667v8h2.667z"></path>
</svg>

<svg xmlns="http://www.w3.org/2000/svg" width="48" height="48" viewBox="0 0 48 48">
  <path d="M24 25.333h-2.667V20H24zm24-10.666v16H24v2.667H13.333v-2.667H0v-16zm-34.667 2.666H2.666V28h5.333v-8h2.667v8h2.667zm13.334 0H16v13.333h5.333v-2.667h5.333zm18.666 0h-16V28h5.333v-8h2.667v8H40v-8h2.667v8h2.667z"/>
</svg>
